; generated by Slic3r 0.6.1-dev on 2012-02-03 at 09:15:22

; layer_height = 0.2
; perimeters = 3
; solid_layers = 3
; fill_density = 0.2
; nozzle_diameter = 0.35
; filament_diameter = 3
; perimeter_speed = 70
; infill_speed = 70
; travel_speed = 360
; extrusion_width_ratio = 2
; scale = 1
; single wall width = 0.40mm

M92 E800
M104 S190
M140 S60
G0 X0 F21600
G0 Y0 F21600
G0 Z0 F150
G28
G92 E0
M190 S60
G0 X0 Y210 F21600
M109 S190
G0 Z1 F100
G0 X100 Y105 F21600
G90 ; use absolute coordinates
G21 ; set units to millimeters
G92 E0 ; reset extrusion distance
M82 ; use absolute distances for extrusion
G1 Z0.200 F21600.000
G1 X55.290 Y65.781
G1 F2400.000 E1.50000
G1 X55.660 Y65.401 F2940.000 E1.50584
G1 X56.070 Y65.051 E1.51178
G1 X63.540 Y59.631 E1.61343
G1 X64.010 Y59.371 E1.61935
G1 X72.440 Y55.641 E1.72088
G1 X72.950 Y55.491 E1.72673
G1 X81.720 Y53.631 E1.82547
G1 X82.250 Y53.561 E1.83136
G1 X82.780 Y53.541 E1.83720
G1 X91.740 Y53.561 E1.93589
G1 X92.540 Y53.681 E1.94480
G1 X101.040 Y55.491 E2.04052
G1 X101.550 Y55.641 E2.04637
G1 X156.530 Y81.691 E2.71646
G1 X157.190 Y82.141 E2.72526
G1 X157.790 Y82.661 E2.73401
G1 X158.150 Y83.051 E2.73985
G1 X158.480 Y83.471 E2.74573
G1 X158.770 Y83.911 E2.75154
G1 X159.140 Y84.621 E2.76036
G1 X159.330 Y85.111 E2.76614
G1 X159.480 Y85.621 E2.77200
G1 X159.590 Y86.141 E2.77785
G1 X159.660 Y86.671 E2.78374
G1 X159.660 Y113.321 E3.07727
G1 X159.590 Y113.851 E3.08316
G1 X159.480 Y114.371 E3.08901
G1 X159.330 Y114.881 E3.09486
G1 X159.140 Y115.371 E3.10065
G1 X158.770 Y116.081 E3.10947
G1 X158.480 Y116.521 E3.11528
G1 X158.150 Y116.941 E3.12116
G1 X157.790 Y117.331 E3.12700
G1 X157.190 Y117.851 E3.13575
G1 X156.750 Y118.161 E3.14168
G1 X156.290 Y118.431 E3.14755
G1 X102.050 Y144.151 E3.80872
G1 X101.300 Y144.431 E3.81754
G1 X92.270 Y146.361 E3.91924
G1 X91.740 Y146.431 E3.92513
G1 X91.210 Y146.451 E3.93097
G1 X82.250 Y146.431 E4.02966
G1 X81.450 Y146.311 E4.03856
G1 X72.950 Y144.501 E4.13428
G1 X72.690 Y144.431 E4.13725
G1 X71.940 Y144.151 E4.14607
G1 X64.010 Y140.601 E4.24176
G1 X63.540 Y140.351 E4.24762
G1 X63.320 Y140.211 E4.25050
G1 X55.860 Y134.771 E4.35219
G1 X55.470 Y134.411 E4.35803
G1 X49.470 Y127.751 E4.45677
G1 X49.000 Y127.101 E4.46560
G1 X44.530 Y119.351 E4.56414
G1 X44.300 Y118.861 E4.57010
G1 X41.430 Y110.081 E4.67184
G1 X41.310 Y109.561 E4.67772
G1 X40.330 Y100.391 E4.77929
G1 X40.320 Y99.861 E4.78513
G1 X41.310 Y90.421 E4.88967
G1 X41.430 Y89.901 E4.89555
G1 X44.200 Y81.381 E4.99423
G1 X44.410 Y80.881 E5.00020
G1 X49.000 Y72.891 E5.10169
G1 X49.470 Y72.241 E5.11052
G1 X55.250 Y65.826 E5.20563
G1 X55.570 Y66.031 F21600.000
G1 X55.740 Y65.851 F2940.000 E5.20836
G1 X56.300 Y65.351 E5.21663
G1 X63.530 Y60.091 E5.31510
G1 X63.960 Y59.831 E5.32064
G1 X72.330 Y56.091 E5.42161
G1 X72.570 Y56.001 E5.42443
G1 X73.290 Y55.801 E5.43266
G1 X81.780 Y54.001 E5.52825
G1 X82.280 Y53.941 E5.53380
G1 X82.780 Y53.921 E5.53931
G1 X91.710 Y53.941 E5.63767
G1 X92.210 Y54.001 E5.64321
G1 X100.940 Y55.861 E5.74152
G1 X101.420 Y56.001 E5.74703
G1 X156.350 Y82.031 E6.41653
G1 X156.570 Y82.171 E6.41940
G1 X156.990 Y82.471 E6.42508
G1 X157.190 Y82.631 E6.42790
G1 X157.390 Y82.811 E6.43087
G1 X157.920 Y83.371 E6.43936
G1 X158.380 Y84.001 E6.44795
G1 X158.510 Y84.221 E6.45077
G1 X158.750 Y84.691 E6.45658
G1 X158.850 Y84.921 E6.45934
G1 X159.030 Y85.411 E6.46509
G1 X159.160 Y85.911 E6.47078
G1 X159.250 Y86.421 E6.47649
G1 X159.280 Y86.681 E6.47937
G1 X159.280 Y113.311 E6.77267
G1 X159.210 Y113.821 E6.77834
G1 X159.100 Y114.331 E6.78409
G1 X159.030 Y114.581 E6.78695
G1 X158.850 Y115.071 E6.79270
G1 X158.750 Y115.301 E6.79546
G1 X158.510 Y115.771 E6.80127
G1 X158.380 Y115.991 E6.80409
G1 X157.920 Y116.621 E6.81268
G1 X157.390 Y117.181 E6.82117
G1 X157.190 Y117.361 E6.82413
G1 X156.780 Y117.681 E6.82986
G1 X156.350 Y117.961 E6.83552
G1 X101.660 Y143.901 E7.50220
G1 X101.430 Y143.991 E7.50492
G1 X100.700 Y144.191 E7.51325
G1 X92.210 Y145.991 E7.60884
G1 X91.710 Y146.051 E7.61439
G1 X91.210 Y146.071 E7.61990
G1 X82.280 Y146.051 E7.71826
G1 X81.780 Y145.991 E7.72380
G1 X73.050 Y144.131 E7.82211
G1 X72.560 Y143.991 E7.82773
G1 X63.960 Y140.151 E7.93146
G1 X63.530 Y139.891 E7.93700
G1 X56.110 Y134.481 E8.03814
G1 X55.920 Y134.321 E8.04087
G1 X49.770 Y127.511 E8.14194
G1 X49.460 Y127.111 E8.14751
G1 X49.320 Y126.901 E8.15029
G1 X44.860 Y119.171 E8.24859
G1 X44.650 Y118.711 E8.25415
G1 X41.800 Y109.981 E8.35530
G1 X41.640 Y109.251 E8.36353
G1 X40.710 Y100.371 E8.46187
G1 X40.700 Y99.861 E8.46749
G1 X41.640 Y90.731 E8.56858
G1 X41.800 Y90.001 E8.57681
G1 X44.560 Y81.511 E8.67514
G1 X44.750 Y81.051 E8.68062
G1 X44.860 Y80.821 E8.68343
G1 X49.320 Y73.091 E8.78172
G1 X49.460 Y72.881 E8.78450
G1 X49.930 Y72.291 E8.79281
G1 X55.530 Y66.076 E8.88495
G1 F2400.000 E7.88495
G92 E0
G1 X64.365 Y74.862 F21600.000
G1 F2400.000 E1.50000
G1 X59.633 Y80.117 F2940.000 E1.57789
G1 X56.098 Y86.241 E1.65577
G1 X53.911 Y92.967 E1.73367
G1 X53.173 Y100.001 E1.81157
G1 X53.911 Y107.033 E1.88944
G1 X56.098 Y113.759 E1.96734
G1 X59.633 Y119.883 E2.04523
G1 X64.365 Y125.138 E2.12312
G1 X70.085 Y129.295 E2.20100
G1 X76.546 Y132.170 E2.27888
G1 X83.463 Y133.641 E2.35677
G1 X90.535 Y133.641 E2.43466
G1 X97.452 Y132.170 E2.51255
G1 X103.913 Y129.295 E2.59043
G1 X109.633 Y125.138 E2.66831
G1 X114.365 Y119.883 E2.74620
G1 X117.900 Y113.759 E2.82409
G1 X120.087 Y107.033 E2.90199
G1 X120.825 Y100.001 E2.97986
G1 X120.087 Y92.967 E3.05776
G1 X117.900 Y86.241 E3.13566
G1 X114.365 Y80.117 E3.21354
G1 X109.633 Y74.862 E3.29143
G1 X103.913 Y70.705 E3.36931
G1 X97.452 Y67.830 E3.44719
G1 X90.535 Y66.359 E3.52508
G1 X83.463 Y66.359 E3.60297
G1 X76.546 Y67.830 E3.68086
G1 X70.085 Y70.705 E3.75875
G1 X64.414 Y74.826 E3.83596
G1 X64.110 Y74.577 F21600.000
G1 X59.324 Y79.892 F2940.000 E3.91473
G1 X55.749 Y86.086 E3.99350
G1 X53.537 Y92.888 E4.07228
G1 X52.790 Y100.001 E4.15106
G1 X53.537 Y107.112 E4.22981
G1 X55.749 Y113.914 E4.30859
G1 X59.324 Y120.108 E4.38736
G1 X64.110 Y125.423 E4.46613
G1 X69.894 Y129.626 E4.54489
G1 X76.428 Y132.534 E4.62365
G1 X83.423 Y134.021 E4.70242
G1 X90.575 Y134.021 E4.78119
G1 X97.570 Y132.534 E4.85996
G1 X104.104 Y129.626 E4.93873
G1 X109.888 Y125.423 E5.01749
G1 X114.674 Y120.108 E5.09626
G1 X118.249 Y113.914 E5.17502
G1 X120.461 Y107.112 E5.25380
G1 X121.208 Y100.001 E5.33256
G1 X120.461 Y92.888 E5.41133
G1 X118.249 Y86.086 E5.49011
G1 X114.674 Y79.892 E5.56888
G1 X109.888 Y74.577 E5.64765
G1 X104.104 Y70.374 E5.72641
G1 X97.570 Y67.466 E5.80517
G1 X90.575 Y65.979 E5.88394
G1 X83.423 Y65.979 E5.96272
G1 X76.428 Y67.466 E6.04148
G1 X69.894 Y70.374 E6.12025
G1 X64.158 Y74.542 E6.19835
G1 X63.854 Y74.293 F21600.000
G1 X59.014 Y79.667 F2940.000 E6.27800
G1 X55.400 Y85.930 E6.35764
G1 X53.163 Y92.808 E6.43730
G1 X52.408 Y100.001 E6.51696
G1 X53.163 Y107.192 E6.59660
G1 X55.400 Y114.070 E6.67626
G1 X59.014 Y120.333 E6.75590
G1 X63.854 Y125.707 E6.83555
G1 X69.703 Y129.958 E6.91520
G1 X76.310 Y132.898 E6.99484
G1 X83.383 Y134.402 E7.07449
G1 X90.615 Y134.402 E7.15414
G1 X97.688 Y132.898 E7.23379
G1 X104.295 Y129.958 E7.31344
G1 X110.144 Y125.707 E7.39308
G1 X114.984 Y120.333 E7.47273
G1 X118.598 Y114.070 E7.55238
G1 X120.835 Y107.192 E7.63204
G1 X121.590 Y100.001 E7.71167
G1 X120.835 Y92.808 E7.79133
G1 X118.598 Y85.930 E7.87099
G1 X114.984 Y79.667 E7.95064
G1 X110.144 Y74.293 E8.03029
G1 X104.295 Y70.042 E8.10993
G1 X97.688 Y67.102 E8.18957
G1 X90.615 Y65.598 E8.26922
G1 X83.383 Y65.598 E8.34888
G1 X76.310 Y67.102 E8.42853
G1 X69.703 Y70.042 E8.50817
G1 X63.902 Y74.258 E8.58715
G1 F2400.000 E7.58715
G92 E0
G1 X60.546 Y70.621 F21600.000
G1 F2400.000 E1.50000
G1 X67.233 Y65.762 F2940.000 E1.59104
G1 X74.783 Y62.402 E1.68205
G1 X82.867 Y60.682 E1.77309
G1 X91.131 Y60.682 E1.86411
G1 X99.216 Y62.402 E1.95515
G1 X106.767 Y65.762 E2.04618
G1 X113.452 Y70.621 E2.13720
G1 X118.983 Y76.763 E2.22824
G1 X123.115 Y83.920 E2.31927
G1 X124.428 Y87.962 E2.36607
G1 X152.539 Y87.962 E2.67569
G1 X152.539 Y112.038 E2.94087
G1 X124.428 Y112.038 E3.25049
G1 X123.115 Y116.080 E3.29730
G1 X118.983 Y123.237 E3.38833
G1 X113.452 Y129.379 E3.47936
G1 X106.767 Y134.238 E3.57038
G1 X99.216 Y137.598 E3.66142
G1 X91.131 Y139.318 E3.75246
G1 X82.867 Y139.318 E3.84347
G1 X74.783 Y137.598 E3.93451
G1 X67.233 Y134.238 E4.02552
G1 X60.546 Y129.379 E4.11657
G1 X55.014 Y123.237 E4.20761
G1 X50.883 Y116.080 E4.29863
G1 X48.329 Y108.220 E4.38965
G1 X47.466 Y100.001 E4.48068
G1 X48.329 Y91.780 E4.57173
G1 X50.883 Y83.920 E4.66275
G1 X55.014 Y76.763 E4.75377
G1 X60.506 Y70.665 E4.84415
G1 X60.290 Y70.337 F21600.000
G1 X67.042 Y65.430 F2940.000 E4.93608
G1 X74.664 Y62.038 E5.02797
G1 X82.827 Y60.301 E5.11989
G1 X91.171 Y60.301 E5.21179
G1 X99.334 Y62.038 E5.30370
G1 X106.958 Y65.430 E5.39562
G1 X113.707 Y70.337 E5.48752
G1 X119.292 Y76.538 E5.57944
G1 X123.465 Y83.764 E5.67135
G1 X124.704 Y87.581 E5.71555
G1 X152.920 Y87.581 E6.02631
G1 X152.920 Y112.419 E6.29987
G1 X124.704 Y112.419 E6.61064
G1 X123.465 Y116.236 E6.65484
G1 X119.292 Y123.462 E6.74675
G1 X113.707 Y129.663 E6.83867
G1 X106.958 Y134.570 E6.93057
G1 X99.334 Y137.962 E7.02248
G1 X91.171 Y139.699 E7.11440
G1 X82.827 Y139.699 E7.20630
G1 X74.664 Y137.962 E7.29822
G1 X67.042 Y134.570 E7.39011
G1 X60.290 Y129.663 E7.48203
G1 X54.704 Y123.462 E7.57396
G1 X50.533 Y116.236 E7.66586
G1 X47.955 Y108.300 E7.75776
G1 X47.084 Y100.001 E7.84967
G1 X47.955 Y91.700 E7.94160
G1 X50.533 Y83.764 E8.03350
G1 X54.704 Y76.538 E8.12540
G1 X60.250 Y70.381 E8.21667
G1 X60.035 Y70.052 F21600.000
G1 X66.851 Y65.099 F2940.000 E8.30947
G1 X74.546 Y61.674 E8.40224
G1 X82.787 Y59.921 E8.49504
G1 X91.211 Y59.921 E8.58782
G1 X99.452 Y61.674 E8.68062
G1 X107.149 Y65.099 E8.77342
G1 X113.963 Y70.052 E8.86620
G1 X119.601 Y76.313 E8.95899
G1 X123.814 Y83.609 E9.05178
G1 X124.981 Y87.201 E9.09338
G1 X153.300 Y87.201 E9.40529
G1 X153.300 Y112.799 E9.68723
G1 X124.981 Y112.799 E9.99914
G1 X123.814 Y116.391 E10.04074
G1 X119.601 Y123.687 E10.13353
G1 X113.963 Y129.948 E10.22633
G1 X107.149 Y134.901 E10.31911
G1 X99.452 Y138.326 E10.41191
G1 X91.211 Y140.079 E10.50470
G1 X82.787 Y140.079 E10.59748
G1 X74.546 Y138.326 E10.69028
G1 X66.851 Y134.901 E10.78306
G1 X60.035 Y129.948 E10.87586
G1 X54.395 Y123.687 E10.96867
G1 X50.184 Y116.391 E11.06145
G1 X47.581 Y108.379 E11.15423
G1 X46.701 Y100.001 E11.24702
G1 X47.581 Y91.621 E11.33983
G1 X50.184 Y83.609 E11.43261
G1 X54.395 Y76.313 E11.52539
G1 X59.994 Y70.097 E11.61754
G1 F2400.000 E10.61754
G92 E0
G1 X73.147 Y84.616 F21600.000
G1 F2400.000 E1.50000
G1 X70.251 Y87.833 F2940.000 E1.54768
G1 X68.088 Y91.579 E1.59532
G1 X66.749 Y95.695 E1.64300
G1 X66.299 Y100.001 E1.69068
G1 X66.749 Y104.305 E1.73834
G1 X68.088 Y108.421 E1.78601
G1 X70.251 Y112.167 E1.83366
G1 X73.147 Y115.384 E1.88134
G1 X76.649 Y117.927 E1.92900
G1 X80.602 Y119.688 E1.97666
G1 X84.835 Y120.587 E2.02433
G1 X89.163 Y120.587 E2.07199
G1 X93.396 Y119.688 E2.11966
G1 X97.351 Y117.927 E2.16734
G1 X100.851 Y115.384 E2.21499
G1 X103.747 Y112.167 E2.26266
G1 X105.910 Y108.421 E2.31031
G1 X107.249 Y104.305 E2.35798
G1 X107.701 Y100.001 E2.40565
G1 X107.249 Y95.695 E2.45333
G1 X105.910 Y91.579 E2.50100
G1 X103.747 Y87.833 E2.54865
G1 X100.851 Y84.616 E2.59633
G1 X97.351 Y82.073 E2.64398
G1 X93.396 Y80.312 E2.69165
G1 X89.163 Y79.413 E2.73932
G1 X84.835 Y79.413 E2.78699
G1 X80.602 Y80.312 E2.83465
G1 X76.649 Y82.073 E2.88231
G1 X73.196 Y84.580 E2.92931
G1 X72.892 Y84.331 F21600.000
G1 X69.942 Y87.608 F2940.000 E2.97787
G1 X67.739 Y91.424 E3.02640
G1 X66.375 Y95.616 E3.07495
G1 X65.916 Y100.001 E3.12352
G1 X66.375 Y104.384 E3.17206
G1 X67.739 Y108.576 E3.22061
G1 X69.942 Y112.392 E3.26914
G1 X72.892 Y115.669 E3.31770
G1 X76.458 Y118.258 E3.36624
G1 X80.484 Y120.052 E3.41478
G1 X84.795 Y120.967 E3.46333
G1 X89.203 Y120.967 E3.51188
G1 X93.514 Y120.052 E3.56042
G1 X97.542 Y118.258 E3.60898
G1 X101.107 Y115.669 E3.65751
G1 X104.056 Y112.392 E3.70607
G1 X106.259 Y108.576 E3.75459
G1 X107.623 Y104.384 E3.80315
G1 X108.084 Y100.001 E3.85169
G1 X107.623 Y95.616 E3.90026
G1 X106.259 Y91.424 E3.94881
G1 X104.056 Y87.608 E3.99734
G1 X101.107 Y84.331 E4.04590
G1 X97.542 Y81.742 E4.09442
G1 X93.514 Y79.948 E4.14298
G1 X89.203 Y79.033 E4.19153
G1 X84.795 Y79.033 E4.24008
G1 X80.484 Y79.948 E4.28862
G1 X76.458 Y81.742 E4.33716
G1 X72.940 Y84.296 E4.38505
G1 X72.636 Y84.047 F21600.000
G1 X69.632 Y87.383 F2940.000 E4.43449
G1 X67.390 Y91.268 E4.48389
G1 X66.001 Y95.536 E4.53333
G1 X65.534 Y100.001 E4.58277
G1 X66.001 Y104.464 E4.63219
G1 X67.390 Y108.732 E4.68163
G1 X69.632 Y112.617 E4.73104
G1 X72.636 Y115.953 E4.78048
G1 X76.267 Y118.590 E4.82990
G1 X80.365 Y120.416 E4.87932
G1 X84.755 Y121.348 E4.92875
G1 X89.243 Y121.348 E4.97818
G1 X93.632 Y120.416 E5.02760
G1 X97.733 Y118.590 E5.07704
G1 X101.362 Y115.953 E5.12645
G1 X104.366 Y112.617 E5.17589
G1 X106.608 Y108.732 E5.22530
G1 X107.997 Y104.464 E5.27473
G1 X108.466 Y100.001 E5.32416
G1 X107.997 Y95.536 E5.37360
G1 X106.608 Y91.268 E5.42304
G1 X104.366 Y87.383 E5.47244
G1 X101.362 Y84.047 E5.52188
G1 X97.733 Y81.410 E5.57129
G1 X93.632 Y79.584 E5.62073
G1 X89.243 Y78.652 E5.67016
G1 X84.755 Y78.652 E5.71959
G1 X80.365 Y79.584 E5.76901
G1 X76.267 Y81.410 E5.81843
G1 X72.684 Y84.012 E5.86720
G1 F2400.000 E4.86720
G92 E0
G1 X67.236 Y78.053 F21600.000
G1 F2400.000 E1.50000
G1 X72.233 Y74.424 F2940.000 E1.56802
G1 X77.873 Y71.912 E1.63602
G1 X83.911 Y70.628 E1.70401
G1 X90.087 Y70.628 E1.77203
G1 X96.125 Y71.912 E1.84003
G1 X101.765 Y74.424 E1.90803
G1 X106.762 Y78.053 E1.97605
G1 X110.892 Y82.641 E2.04404
G1 X113.979 Y87.988 E2.11204
G1 X115.887 Y93.860 E2.18004
G1 X116.532 Y100.001 E2.24806
G1 X115.887 Y106.140 E2.31605
G1 X113.979 Y112.012 E2.38405
G1 X110.892 Y117.359 E2.45205
G1 X106.762 Y121.947 E2.52005
G1 X101.765 Y125.576 E2.58807
G1 X96.125 Y128.088 E2.65606
G1 X90.087 Y129.372 E2.72406
G1 X83.911 Y129.372 E2.79208
G1 X77.873 Y128.088 E2.86007
G1 X72.233 Y125.576 E2.92807
G1 X67.236 Y121.947 E2.99609
G1 X63.106 Y117.359 E3.06409
G1 X60.019 Y112.012 E3.13209
G1 X58.111 Y106.140 E3.20009
G1 X57.466 Y100.001 E3.26808
G1 X58.111 Y93.860 E3.33609
G1 X60.019 Y87.988 E3.40409
G1 X63.106 Y82.641 E3.47210
G1 X67.196 Y78.098 E3.53943
G1 X66.980 Y77.769 F21600.000
G1 X72.042 Y74.092 F2940.000 E3.60833
G1 X77.754 Y71.548 E3.67721
G1 X83.871 Y70.247 E3.74608
G1 X90.127 Y70.247 E3.81499
G1 X96.244 Y71.548 E3.88386
G1 X101.956 Y74.092 E3.95274
G1 X107.018 Y77.769 E4.02164
G1 X111.202 Y82.416 E4.09052
G1 X114.329 Y87.832 E4.15940
G1 X116.261 Y93.780 E4.22828
G1 X116.914 Y100.001 E4.29718
G1 X116.261 Y106.220 E4.36605
G1 X114.329 Y112.168 E4.43493
G1 X111.202 Y117.584 E4.50381
G1 X107.018 Y122.231 E4.57269
G1 X101.956 Y125.908 E4.64159
G1 X96.244 Y128.452 E4.71047
G1 X90.127 Y129.753 E4.77934
G1 X83.871 Y129.753 E4.84824
G1 X77.754 Y128.452 E4.91712
G1 X72.042 Y125.908 E4.98600
G1 X66.980 Y122.231 E5.05490
G1 X62.796 Y117.584 E5.12377
G1 X59.669 Y112.168 E5.19266
G1 X57.737 Y106.220 E5.26154
G1 X57.084 Y100.001 E5.33041
G1 X57.737 Y93.780 E5.39930
G1 X59.669 Y87.832 E5.46818
G1 X62.796 Y82.416 E5.53707
G1 X66.940 Y77.813 E5.60528
G1 X66.725 Y77.484 F21600.000
G1 X71.851 Y73.761 F2940.000 E5.67506
G1 X77.636 Y71.184 E5.74482
G1 X83.831 Y69.867 E5.81458
G1 X90.167 Y69.867 E5.88436
G1 X96.362 Y71.184 E5.95412
G1 X102.147 Y73.761 E6.02388
G1 X107.273 Y77.484 E6.09366
G1 X111.511 Y82.191 E6.16341
G1 X114.678 Y87.677 E6.23318
G1 X116.635 Y93.701 E6.30294
G1 X117.297 Y100.001 E6.37271
G1 X116.635 Y106.299 E6.44246
G1 X114.678 Y112.323 E6.51223
G1 X111.511 Y117.809 E6.58199
G1 X107.273 Y122.516 E6.65175
G1 X102.147 Y126.239 E6.72153
G1 X96.362 Y128.816 E6.79129
G1 X90.167 Y130.133 E6.86104
G1 X83.831 Y130.133 E6.93083
G1 X77.636 Y128.816 E7.00058
G1 X71.851 Y126.239 E7.07034
G1 X66.725 Y122.516 E7.14012
G1 X62.487 Y117.809 E7.20988
G1 X59.320 Y112.323 E7.27964
G1 X57.363 Y106.299 E7.34941
G1 X56.701 Y100.001 E7.41916
G1 X57.363 Y93.701 E7.48893
G1 X59.320 Y87.677 E7.55869
G1 X62.487 Y82.191 E7.62846
G1 X66.684 Y77.529 E7.69755
G1 F2400.000 E6.69755
G92 E0
G1 X49.676 Y111.370 F21600.000
